scenes/smatch/img/smatch_tree_level_1.svg

<svg xmlns="http://www.w3.org/2000/svg" viewBox="0 0 180 320"><style>.st0{fill:#725d4d}.st1{fill:#09904a}.st2{clip-path:url(#SVGID_13_)}.st2,.st3,.st4,.st5,.st6,.st7{fill:none;stroke:#0ca760;stroke-width:6.598;stroke-miterlimit:10}.st3{clip-path:url(#SVGID_14_)}.st4{clip-path:url(#SVGID_15_)}.st5{clip-path:url(#SVGID_16_)}.st6{clip-path:url(#SVGID_17_)}.st7{clip-path:url(#SVGID_18_)}.st8,.st9{opacity:.22;fill:#fff;enable-background:new}.st9{opacity:.1;fill:#010101}.st10{fill:#fbcd49;stroke:#fbcd49;stroke-width:1.1;stroke-linejoin:round}.st10,.st11,.st12{stroke-miterlimit:10}.st11{stroke-linecap:round;stroke-dasharray:0,6.5982;fill:none;stroke:#f3c137;stroke-width:3.299}.st12{fill:#fff;stroke:#fff;stroke-width:2.199;stroke-linejoin:round}.st13{fill:#ef3a38}.st14{clip-path:url(#SVGID_19_);stroke:#0ca760;stroke-width:6.598}.st14,.st15,.st16{fill:none;stroke-miterlimit:10}.st15{stroke:#0ca760;stroke-width:6.598;clip-path:url(#SVGID_20_)}.st16{clip-path:url(#SVGID_21_)}.st16,.st17,.st18{stroke:#0ca760;stroke-width:6.598}.st17{fill:none;stroke-miterlimit:10;clip-path:url(#SVGID_22_)}.st18{clip-path:url(#SVGID_23_)}.st18,.st19,.st20{fill:none;stroke-miterlimit:10}.st19{clip-path:url(#SVGID_24_);stroke:#0ca760;stroke-width:6.598}.st20{stroke:#979797;stroke-width:3.307;stroke-linecap:round}.st21{fill:#d43f2e}.st22{fill:#333}.st23{fill:#fedf8a}.st24{fill:#f17c21}.st25{fill:#fff}.st26{fill:#fed401}.st27{opacity:.7;fill:#fff;enable-background:new}.st28{fill:none;stroke:#78cdf2;stroke-width:3;stroke-miterlimit:10}.st29{fill:#9dca3b}.st30{fill:#c8c7c7}.st31{fill:#979797}.st32,.st33{fill:none;stroke:#979797;stroke-width:4;stroke-miterlimit:10}.st33{stroke:#945f25;stroke-width:5;stroke-linecap:round;stroke-linejoin:round}.st34{fill:#ffde00}.st35{clip-path:url(#SVGID_26_);fill:#ba802b}.st36{clip-path:url(#SVGID_28_)}.st36,.st37,.st38{opacity:.1;fill:#010101;enable-background:new}.st37{clip-path:url(#SVGID_30_)}.st38{clip-path:url(#SVGID_32_)}.st39{clip-path:url(#SVGID_34_)}.st39,.st40,.st41,.st42,.st43,.st44,.st45,.st46{opacity:.1;fill:#010101;enable-background:new}.st40{clip-path:url(#SVGID_36_)}.st41{clip-path:url(#SVGID_38_)}.st42{clip-path:url(#SVGID_40_)}.st43{clip-path:url(#SVGID_42_)}.st44{clip-path:url(#SVGID_44_)}.st45{clip-path:url(#SVGID_46_)}.st46{clip-path:url(#SVGID_48_)}.st47{fill:#945f25}.st48{fill:#5e83c2}.st49{fill:#f38834}.st50{fill:#a45da5}.st51{fill:#49b680}.st52{fill:#d84737}.st53{fill:#23a7e0}.st54{fill:#cacaca}.st55{fill:#22b0e6}.st56,.st57,.st58{fill:none;stroke:#fff;stroke-miterlimit:10}.st57,.st58{stroke:#b99960;stroke-width:2;stroke-linecap:round;stroke-linejoin:round}.st58{stroke:#b0b1b1}.st59{fill:#d2ae6e}.st60{fill:none;stroke:#d2ae6e;stroke-width:2;stroke-linecap:round;stroke-linejoin:round;stroke-miterlimit:10}.st61{fill:#874638}.st62{fill:#fbcf9a}.st63{fill:#fbcd49}.st64{fill:#fedc00}.st65{fill:#d23b2b}.st66{fill:#7bb542}.st67{fill:#fcb415}.st68{fill:#3cc4e2}.st69{fill:#5e449b}</style><path class="st12" d="M111.4 154.9c0 5.2-4.1 9.3-9.3 9.3-5.2 0-9.3-4.1-9.3-9.3h18.6zm18.8 0c0 5.2-4.1 9.3-9.3 9.3-5.2 0-9.3-4.1-9.3-9.3h18.6zm18.5 0c0 5.2-4.1 9.3-9.3 9.3-5.2 0-9.3-4.1-9.3-9.3h18.6zm-107.5 41c0 5.2-4.1 9.3-9.3 9.3s-9.3-4.1-9.3-9.3h18.6zm18.7 0c0 5.2-4.1 9.3-9.3 9.3s-9.3-4.1-9.3-9.3h18.6zm18.8 0c0 5.2-4.1 9.3-9.3 9.3-5.2 0-9.3-4.1-9.3-9.3h18.6zM24 250.7c0 5.2-4.1 9.3-9.3 9.3s-9.3-4.1-9.3-9.3H24zm18.6 0c0 5.2-4.1 9.3-9.3 9.3s-9.3-4.1-9.3-9.3h18.6zm18.7 0c0 5.2-4.1 9.3-9.3 9.3s-9.3-4.1-9.3-9.3h18.6zm18.8 0c0 5.2-4.1 9.3-9.3 9.3-5.2 0-9.3-4.1-9.3-9.3h18.6zm18.6 0c0 5.2-4.1 9.3-9.3 9.3-5.2 0-9.3-4.1-9.3-9.3h18.6zM74.1 127.5c0 5.2-4.1 9.3-9.3 9.3-5.2 0-9.3-4.1-9.3-9.3h18.6zm18.7 0c0 5.2-4.1 9.3-9.3 9.3-5.2 0-9.3-4.1-9.3-9.3h18.6zm18.6 0c0 5.2-4.1 9.3-9.3 9.3-5.2 0-9.3-4.1-9.3-9.3h18.6zm20.6 89c0 5.2-4.1 9.3-9.3 9.3-5.2 0-9.3-4.1-9.3-9.3H132zm18.8 0c0 5.2-4.1 9.3-9.3 9.3-5.2 0-9.3-4.1-9.3-9.3h18.6zm18.6 0c0 5.2-4.1 9.3-9.3 9.3s-9.3-4.1-9.3-9.3h18.6zm-56.1 0c0 5.2-4.1 9.3-9.3 9.3-5.2 0-9.3-4.1-9.3-9.3h18.6zm2.9-116.3c0 5.2-4.1 9.3-9.3 9.3-5.2 0-9.3-4.1-9.3-9.3h18.6zm18.6 0c0 5.2-4.1 9.3-9.3 9.3s-9.3-4.1-9.3-9.3h18.6zm-54.7-27c0 5.2-4.1 9.3-9.3 9.3-5.2 0-9.3-4.1-9.3-9.3h18.6zm18.6 0c0 5.2-4.1 9.3-9.3 9.3-5.2 0-9.3-4.1-9.3-9.3h18.6zm14.1-27.9c0 5.2-4.1 9.3-9.3 9.3-5.2 0-9.3-4.1-9.3-9.3h18.6zM95.6 11.4c0 2.9-2.4 5.3-5.3 5.3S85 14.3 85 11.4h10.6z" id="Layer_1"/></svg>

<?xml version="1.0" encoding="utf-8"?>
<!-- Generator: Adobe Illustrator 19.1.0, SVG Export Plug-In . SVG Version: 6.00 Build 0)  -->
<svg version="1.1" xmlns="http://www.w3.org/2000/svg" xmlns:xlink="http://www.w3.org/1999/xlink" x="0px" y="0px"
	 viewBox="0 0 180 320" style="enable-background:new 0 0 180 320;" xml:space="preserve">
<style type="text/css">
	.st0{fill:#725D4D;}
	.st1{fill:#09904A;}
	.st2{clip-path:url(#SVGID_13_);fill:none;stroke:#0CA760;stroke-width:6.598;stroke-miterlimit:10;}
	.st3{clip-path:url(#SVGID_14_);fill:none;stroke:#0CA760;stroke-width:6.598;stroke-miterlimit:10;}
	.st4{clip-path:url(#SVGID_15_);fill:none;stroke:#0CA760;stroke-width:6.598;stroke-miterlimit:10;}
	.st5{clip-path:url(#SVGID_16_);fill:none;stroke:#0CA760;stroke-width:6.598;stroke-miterlimit:10;}
	.st6{clip-path:url(#SVGID_17_);fill:none;stroke:#0CA760;stroke-width:6.598;stroke-miterlimit:10;}
	.st7{clip-path:url(#SVGID_18_);fill:none;stroke:#0CA760;stroke-width:6.598;stroke-miterlimit:10;}
	.st8{opacity:0.22;fill:#FFFFFF;enable-background:new    ;}
	.st9{opacity:0.1;fill:#010101;enable-background:new    ;}
	.st10{fill:#FBCD49;stroke:#FBCD49;stroke-width:1.1;stroke-linejoin:round;stroke-miterlimit:10;}
	.st11{fill:none;stroke:#F3C137;stroke-width:3.299;stroke-linecap:round;stroke-miterlimit:10;stroke-dasharray:0,6.5982;}
	.st12{fill:#FFFFFF;stroke:#FFFFFF;stroke-width:2.199;stroke-linejoin:round;stroke-miterlimit:10;}
	.st13{fill:#EF3A38;}
	.st14{clip-path:url(#SVGID_19_);fill:none;stroke:#0CA760;stroke-width:6.598;stroke-miterlimit:10;}
	.st15{clip-path:url(#SVGID_20_);fill:none;stroke:#0CA760;stroke-width:6.598;stroke-miterlimit:10;}
	.st16{clip-path:url(#SVGID_21_);fill:none;stroke:#0CA760;stroke-width:6.598;stroke-miterlimit:10;}
	.st17{clip-path:url(#SVGID_22_);fill:none;stroke:#0CA760;stroke-width:6.598;stroke-miterlimit:10;}
	.st18{clip-path:url(#SVGID_23_);fill:none;stroke:#0CA760;stroke-width:6.598;stroke-miterlimit:10;}
	.st19{clip-path:url(#SVGID_24_);fill:none;stroke:#0CA760;stroke-width:6.598;stroke-miterlimit:10;}
	.st20{fill:none;stroke:#979797;stroke-width:3.307;stroke-linecap:round;stroke-miterlimit:10;}
	.st21{fill:#D43F2E;}
	.st22{fill:#333333;}
	.st23{fill:#FEDF8A;}
	.st24{fill:#F17C21;}
	.st25{fill:#FFFFFF;}
	.st26{fill:#FED401;}
	.st27{opacity:0.7;fill:#FFFFFF;enable-background:new    ;}
	.st28{fill:none;stroke:#78CDF2;stroke-width:3;stroke-miterlimit:10;}
	.st29{fill:#9DCA3B;}
	.st30{fill:#C8C7C7;}
	.st31{fill:#979797;}
	.st32{fill:none;stroke:#979797;stroke-width:4;stroke-miterlimit:10;}
	.st33{fill:none;stroke:#945F25;stroke-width:5;stroke-linecap:round;stroke-linejoin:round;stroke-miterlimit:10;}
	.st34{fill:#FFDE00;}
	.st35{clip-path:url(#SVGID_26_);fill:#BA802B;}
	.st36{opacity:0.1;clip-path:url(#SVGID_28_);fill:#010101;enable-background:new    ;}
	.st37{opacity:0.1;clip-path:url(#SVGID_30_);fill:#010101;enable-background:new    ;}
	.st38{opacity:0.1;clip-path:url(#SVGID_32_);fill:#010101;enable-background:new    ;}
	.st39{opacity:0.1;clip-path:url(#SVGID_34_);fill:#010101;enable-background:new    ;}
	.st40{opacity:0.1;clip-path:url(#SVGID_36_);fill:#010101;enable-background:new    ;}
	.st41{opacity:0.1;clip-path:url(#SVGID_38_);fill:#010101;enable-background:new    ;}
	.st42{opacity:0.1;clip-path:url(#SVGID_40_);fill:#010101;enable-background:new    ;}
	.st43{opacity:0.1;clip-path:url(#SVGID_42_);fill:#010101;enable-background:new    ;}
	.st44{opacity:0.1;clip-path:url(#SVGID_44_);fill:#010101;enable-background:new    ;}
	.st45{opacity:0.1;clip-path:url(#SVGID_46_);fill:#010101;enable-background:new    ;}
	.st46{opacity:0.1;clip-path:url(#SVGID_48_);fill:#010101;enable-background:new    ;}
	.st47{fill:#945F25;}
	.st48{fill:#5E83C2;}
	.st49{fill:#F38834;}
	.st50{fill:#A45DA5;}
	.st51{fill:#49B680;}
	.st52{fill:#D84737;}
	.st53{fill:#23A7E0;}
	.st54{fill:#CACACA;}
	.st55{fill:#22B0E6;}
	.st56{fill:none;stroke:#FFFFFF;stroke-miterlimit:10;}
	.st57{fill:none;stroke:#B99960;stroke-width:2;stroke-linecap:round;stroke-linejoin:round;stroke-miterlimit:10;}
	.st58{fill:none;stroke:#B0B1B1;stroke-width:2;stroke-linecap:round;stroke-linejoin:round;stroke-miterlimit:10;}
	.st59{fill:#D2AE6E;}
	.st60{fill:none;stroke:#D2AE6E;stroke-width:2;stroke-linecap:round;stroke-linejoin:round;stroke-miterlimit:10;}
	.st61{fill:#874638;}
	.st62{fill:#FBCF9A;}
	.st63{fill:#FBCD49;}
	.st64{fill:#FEDC00;}
	.st65{fill:#D23B2B;}
	.st66{fill:#7BB542;}
	.st67{fill:#FCB415;}
	.st68{fill:#3CC4E2;}
	.st69{fill:#5E449B;}
</style>
<g id="Layer_1">
	<path class="st12" d="M111.4,154.9c0,5.2-4.1,9.3-9.3,9.3c-5.2,0-9.3-4.1-9.3-9.3H111.4z M130.2,154.9c0,5.2-4.1,9.3-9.3,9.3
		c-5.2,0-9.3-4.1-9.3-9.3H130.2z M148.7,154.9c0,5.2-4.1,9.3-9.3,9.3c-5.2,0-9.3-4.1-9.3-9.3H148.7z M41.2,195.9
		c0,5.2-4.1,9.3-9.3,9.3s-9.3-4.1-9.3-9.3H41.2z M59.9,195.9c0,5.2-4.1,9.3-9.3,9.3s-9.3-4.1-9.3-9.3
		C41.4,195.9,59.9,195.9,59.9,195.9z M78.7,195.9c0,5.2-4.1,9.3-9.3,9.3c-5.2,0-9.3-4.1-9.3-9.3H78.7z M24,250.7
		c0,5.2-4.1,9.3-9.3,9.3s-9.3-4.1-9.3-9.3H24z M42.6,250.7c0,5.2-4.1,9.3-9.3,9.3s-9.3-4.1-9.3-9.3C24,250.7,42.6,250.7,42.6,250.7z
		 M61.3,250.7c0,5.2-4.1,9.3-9.3,9.3s-9.3-4.1-9.3-9.3C42.7,250.7,61.3,250.7,61.3,250.7z M80.1,250.7c0,5.2-4.1,9.3-9.3,9.3
		c-5.2,0-9.3-4.1-9.3-9.3H80.1z M98.7,250.7c0,5.2-4.1,9.3-9.3,9.3c-5.2,0-9.3-4.1-9.3-9.3H98.7z M74.1,127.5c0,5.2-4.1,9.3-9.3,9.3
		c-5.2,0-9.3-4.1-9.3-9.3H74.1z M92.8,127.5c0,5.2-4.1,9.3-9.3,9.3c-5.2,0-9.3-4.1-9.3-9.3H92.8z M111.4,127.5
		c0,5.2-4.1,9.3-9.3,9.3c-5.2,0-9.3-4.1-9.3-9.3H111.4z M132,216.5c0,5.2-4.1,9.3-9.3,9.3c-5.2,0-9.3-4.1-9.3-9.3H132z M150.8,216.5
		c0,5.2-4.1,9.3-9.3,9.3c-5.2,0-9.3-4.1-9.3-9.3H150.8z M169.4,216.5c0,5.2-4.1,9.3-9.3,9.3s-9.3-4.1-9.3-9.3H169.4z M113.3,216.5
		c0,5.2-4.1,9.3-9.3,9.3c-5.2,0-9.3-4.1-9.3-9.3H113.3z M116.2,100.2c0,5.2-4.1,9.3-9.3,9.3c-5.2,0-9.3-4.1-9.3-9.3H116.2z
		 M134.8,100.2c0,5.2-4.1,9.3-9.3,9.3s-9.3-4.1-9.3-9.3H134.8z M80.1,73.2c0,5.2-4.1,9.3-9.3,9.3c-5.2,0-9.3-4.1-9.3-9.3H80.1z
		 M98.7,73.2c0,5.2-4.1,9.3-9.3,9.3c-5.2,0-9.3-4.1-9.3-9.3H98.7z M112.8,45.3c0,5.2-4.1,9.3-9.3,9.3c-5.2,0-9.3-4.1-9.3-9.3H112.8z
		 M95.6,11.4c0,2.9-2.4,5.3-5.3,5.3c-2.9,0-5.3-2.4-5.3-5.3H95.6z"/>
</g>
<g id="Layer_7">
</g>
<g id="Layer_2">
</g>
<g id="Layer_5">
</g>
<g id="Layer_3">
</g>
<g id="Layer_4">
</g>
<g id="Layer_6">
</g>
<g id="Layer_8">
</g>
</svg>
